Obsidian/actions/16s/pane-show.svg

<svg height="16" viewBox="0 0 16 16" width="16" xmlns="http://www.w3.org/2000/svg"><path d="m13 1-10 .0039062v13.9999998l10-.003906v-1.996094h-8v-9.9999998l8-.0019531zm-3 4.0039062-4 3 4 2.9999998v-1.9999998h4v-2h-4z" fill="#bebebe"/></svg>

<svg xmlns="http://www.w3.org/2000/svg" width="16" height="16" viewBox="0 0 16 16">
 <defs>
  <style id="current-color-scheme" type="text/css">
   .ColorScheme-Text { color:#bebebe; } .ColorScheme-Highlight { color:#4285f4; }
  </style>
 </defs>
 <path style="fill:currentColor" class="ColorScheme-Text" d="M 13 1 L 3 1.0039062 L 3 15.003906 L 13 15 L 13 13.003906 L 5 13.003906 L 5 3.0039062 L 13 3.0019531 L 13 1 z M 10 5.0039062 L 6 8.0039062 L 10 11.003906 L 10 9.0039062 L 14 9.0039062 L 14 7.0039062 L 10 7.0039062 L 10 5.0039062 z"/>
</svg>
